lib/brands/icons/behance-alt.svg

<svg xmlns="http://www.w3.org/2000/svg" fill="none" aria-hidden="true" viewBox="0 0 48 48"><g id="behance-alt-Icon"><rect width="48" height="48" fill="#1769FF" rx="24"/><path id="Shape" fill="white" fill-rule="evenodd" d="M23.4704 20.0449C23.4704 19.1198 23.2281 18.3269 22.7449 17.6631C21.9396 16.5821 20.5744 16.0282 18.6448 16H11V31.6065H18.1285C18.9323 31.6065 19.6758 31.5382 20.3637 31.3971C21.0516 31.2546 21.6461 30.9947 22.1504 30.6131C22.5989 30.2805 22.9722 29.8706 23.2702 29.3851C23.7413 28.6515 23.9761 27.8214 23.9761 26.8963C23.9761 25.9994 23.7699 25.2362 23.3605 24.6096C22.9466 23.9814 22.3385 23.5226 21.5317 23.2316C22.0631 22.9643 22.4649 22.6673 22.7389 22.3436C23.2281 21.7645 23.4704 20.9968 23.4704 20.0449ZM34.1376 18.6699H27.3583V16.7276H34.1376V18.6699ZM28.1485 24.6942C28.2599 23.9428 28.5323 23.3474 28.9643 22.9078C29.3963 22.4683 30.0074 22.2485 30.7901 22.2485C31.5126 22.2485 32.1161 22.4549 32.6068 22.8692C33.0915 23.2865 33.3654 23.8923 33.4211 24.6942H28.1485ZM33.54 20.3003C34.3574 20.6597 35.0302 21.2299 35.56 22.008C36.0432 22.694 36.3532 23.4899 36.4947 24.3942C36.5775 24.9229 36.6106 25.6891 36.5971 26.6855H28.0732C28.1244 27.8422 28.5278 28.6545 29.2985 29.1193C29.7651 29.4088 30.3265 29.5543 30.9858 29.5543C31.6796 29.5543 32.2471 29.3776 32.6821 29.0257C32.9214 28.8342 33.1321 28.5698 33.3128 28.2313H36.436C36.3532 28.9143 35.9739 29.6108 35.3026 30.3176C34.255 31.4387 32.7875 32 30.9015 32C29.3436 32 27.9694 31.5278 26.7818 30.5804C25.5882 29.6345 24.9951 28.0932 24.9951 25.9608C24.9951 23.9606 25.5325 22.4267 26.6057 21.3591C27.6819 20.2944 29.0742 19.7583 30.7886 19.7583C31.8076 19.7583 32.7242 19.9395 33.54 20.3003ZM14.1533 28.898V24.7358H18.0487C18.7261 24.7417 19.2544 24.8308 19.6307 25.0001C20.3035 25.3045 20.6377 25.8613 20.6377 26.6751C20.6377 27.6343 20.2915 28.2818 19.5976 28.6233C19.2168 28.8059 18.6809 28.898 17.9946 28.898H14.1533ZM14.1533 18.71V22.1535H18.0006C18.6854 22.1535 19.2439 22.0243 19.6743 21.7659C20.1018 21.5076 20.3171 21.0502 20.3171 20.3968C20.3171 19.6677 20.0341 19.1881 19.4681 18.9535C18.9774 18.7916 18.3543 18.71 17.5972 18.71H14.1533Z" clip-rule="evenodd"/></g></svg>

<svg xmlns="http://www.w3.org/2000/svg" fill="none" aria-hidden="true" viewBox="0 0 48 48"><rect width="48" height="48" fill="#1769FF" rx="24"/><path fill="#fff" fill-rule="evenodd" d="M23.47 20.045c0-.925-.242-1.718-.725-2.382-.805-1.08-2.17-1.635-4.1-1.663H11v15.607h7.128c.804 0 1.548-.069 2.236-.21.688-.142 1.282-.402 1.786-.784a4.338 4.338 0 0 0 1.12-1.228c.471-.734.706-1.564.706-2.489 0-.897-.206-1.66-.616-2.286-.413-.629-1.021-1.087-1.828-1.378.531-.268.933-.565 1.207-.888.49-.58.731-1.347.731-2.3Zm10.668-1.375h-6.78v-1.942h6.78v1.942Zm-5.99 6.024c.112-.751.384-1.347.816-1.786.432-.44 1.043-.66 1.826-.66.723 0 1.326.207 1.817.621.485.418.758 1.023.814 1.825h-5.273ZM33.54 20.3c.817.36 1.49.93 2.02 1.708.483.686.793 1.482.935 2.386.083.529.116 1.295.102 2.292h-8.524c.051 1.156.455 1.968 1.226 2.433.466.29 1.027.435 1.687.435.694 0 1.261-.176 1.696-.528.24-.192.45-.456.63-.795h3.124c-.083.683-.462 1.38-1.133 2.087C34.255 31.438 32.788 32 30.902 32c-1.558 0-2.933-.472-4.12-1.42-1.194-.945-1.787-2.487-1.787-4.62 0-2 .537-3.533 1.61-4.6 1.077-1.066 2.47-1.602 4.184-1.602 1.019 0 1.935.181 2.751.542Zm-19.387 8.598v-4.162h3.896c.677.006 1.205.095 1.582.264.672.305 1.007.861 1.007 1.675 0 .96-.347 1.607-1.04 1.948-.381.183-.917.275-1.603.275h-3.842Zm0-10.188v3.444h3.848c.684 0 1.243-.13 1.673-.388.428-.258.643-.716.643-1.37 0-.728-.283-1.208-.849-1.443-.49-.161-1.114-.243-1.87-.243h-3.445Z" clip-rule="evenodd"/></svg>
